icons/document-person.svg

<svg xmlns="http://www.w3.org/2000/svg" width="24" height="24" viewBox="0 0 24 24">
  <path d="M12,1 L12,8 C12,8.55228475 12.4477153,9 13,9 L20,9 L20,21 C20,22.1045695 19.1045695,23 18,23 L6,23 C4.8954305,23 4,22.1045695 4,21 L4,3 C4,1.8954305 4.8954305,1 6,1 L12,1 Z M13,17 L11,17 L10.8151403,17.0049586 C9.41840278,17.0804956 8.5,18.0076133 8.5,19 C8.5,19.5 8.5,20 9.5,20 L9.5,20 L14.5,20 L14.6575789,19.9954561 C15.5,19.9444444 15.5,19.4722222 15.5,19 C15.5,17.9644661 14.5,17 13,17 L13,17 Z M12,12 C10.8954305,12 10,12.8954305 10,14 C10,15.1045695 10.8954305,16 12,16 C13.1045695,16 14,15.1045695 14,14 C14,12.8954305 13.1045695,12 12,12 Z M14,1 L20,7 L15,7 C14.4871642,7 14.0644928,6.61395981 14.0067277,6.11662113 L14,6 L14,1 Z"/>
</svg>

<svg xmlns="http://www.w3.org/2000/svg" viewBox="0 0 24 24">
  <path d="M12 1v7a1 1 0 0 0 1 1h7v12a2 2 0 0 1-2 2H6a2 2 0 0 1-2-2V3c0-1.1.9-2 2-2h6zm1 16h-2.18c-1.4.08-2.32 1-2.32 2 0 .5 0 1 1 1h5.16c.84-.06.84-.53.84-1 0-1.04-1-2-2.5-2zm-1-5a2 2 0 1 0 0 4 2 2 0 0 0 0-4zm2-11 6 6h-5a1 1 0 0 1-1-.88V1z"/>
</svg>
